fs/window_inprivate_account_20_regular.svg

<svg viewBox="0 0 20 20" fill="none" xmlns="http://www.w3.org/2000/svg" height="1em" width="1em">
  <path d="M5.49707 3C4.11636 3 2.99707 4.11929 2.99707 5.5V14.5C2.99707 15.8807 4.11636 17 5.49707 17H10.1606C10.0616 16.6844 10.0062 16.35 10.0005 16H5.49707C4.66864 16 3.99707 15.3284 3.99707 14.5V7H17V6H16.9971V5.5C16.9971 4.11929 15.8778 3 14.4971 3H5.49707ZM15.9971 5.5V6H3.99707V5.5C3.99707 4.67157 4.66864 4 5.49707 4H14.4971C15.3255 4 15.9971 4.67157 15.9971 5.5ZM15 12C14.1716 12 13.5 11.3284 13.5 10.5C13.5 9.67157 14.1716 9 15 9H17.0002C16.5441 8.39278 15.8179 8 15 8C13.6193 8 12.5 9.11929 12.5 10.5C12.5 11.8807 13.6193 13 15 13C15.8179 13 16.5441 12.6072 17.0002 12H15ZM12.55 15C12.4351 15 12.3001 15.0597 12.1812 15.1934C12.0603 15.3293 12 15.4946 12 15.62V15.94C12 16.829 12.9702 18 15 18H17.9878C17.2799 18.6082 16.2407 19 15 19C12.6332 19 11 17.5744 11 15.94V15.62C11 15.2151 11.1747 14.8204 11.4339 14.5289C11.695 14.2352 12.085 14 12.55 14H17.45C17.915 14 18.305 14.2352 18.5661 14.5289C18.6882 14.6663 18.7916 14.8266 18.8668 15H12.55ZM17.5 10.5C17.5 10.6712 17.4828 10.8384 17.45 11H15V10H17.45C17.4828 10.1616 17.5 10.3288 17.5 10.5ZM15 17H18.7611C18.9085 16.6847 18.9908 16.3474 18.9993 16H15V17Z" fill="#212121"/>
</svg>

<svg viewBox="0 0 20 20" fill="none" xmlns="http://www.w3.org/2000/svg" height="1em" width="1em">
  <path d="M5.497 3a2.5 2.5 0 0 0-2.5 2.5v9a2.5 2.5 0 0 0 2.5 2.5h4.664a3.522 3.522 0 0 1-.16-1H5.497a1.5 1.5 0 0 1-1.5-1.5V7H17V6h-.003v-.5a2.5 2.5 0 0 0-2.5-2.5h-9Zm10.5 2.5V6h-12v-.5a1.5 1.5 0 0 1 1.5-1.5h9a1.5 1.5 0 0 1 1.5 1.5ZM15 12a1.5 1.5 0 0 1 0-3h2a2.5 2.5 0 1 0 0 3h-2Zm-2.45 3c-.115 0-.25.06-.369.193a.683.683 0 0 0-.181.427v.32c0 .889.97 2.06 3 2.06h2.988c-.708.608-1.747 1-2.988 1-2.367 0-4-1.426-4-3.06v-.32c0-.405.175-.8.434-1.091.261-.294.651-.529 1.116-.529h4.9c.465 0 .855.235 1.116.529.122.137.226.298.3.471H12.55Zm4.95-4.5c0 .171-.017.338-.05.5H15v-1h2.45c.033.162.05.329.05.5ZM15 17h3.761a2.48 2.48 0 0 0 .238-1H15v1Z" fill="#212121"/>
</svg>
